lib/svgs/top-up.svg

<?xml version="1.0" encoding="UTF-8" standalone="no"?>
<svg width="20px" height="20px" viewBox="0 0 20 20" version="1.1" xmlns="http://www.w3.org/2000/svg" xmlns:xlink="http://www.w3.org/1999/xlink">
    <defs></defs>
    <g id="Icons" stroke="none" stroke-width="1" fill="none" fill-rule="evenodd">
        <g id="Web" transform="translate(-241.000000, -744.000000)" fill="#000000">
            <g id="arrow/top-up" transform="translate(241.000000, 744.000000)">
                <path d="M15.9866294,18.1876 L4.6416294,18.1876 C4.3106294,18.1876 4.0416294,17.9186 4.0416294,17.5876 C4.0416294,17.2566 4.3106294,16.9886 4.6416294,16.9886 L15.9866294,16.9886 C16.3186294,16.9886 16.5866294,17.2566 16.5866294,17.5876 C16.5866294,17.9186 16.3186294,18.1876 15.9866294,18.1876 M12.4573294,15.33 L8.1713294,15.33 C7.8393294,15.33 7.5713294,15.062 7.5713294,14.731 L7.5713294,10.331 L4.6003294,10.331 C4.3693294,10.331 4.1593294,10.199 4.0593294,9.991 C3.9593294,9.783 3.9873294,9.536 4.1313294,9.356 L9.8453294,2.213 C10.0743294,1.929 10.5543294,1.929 10.7833294,2.213 L16.4973294,9.356 C16.6413294,9.536 16.6693294,9.783 16.5693294,9.991 C16.4693294,10.199 16.2593294,10.331 16.0283294,10.331 L13.0573294,10.331 L13.0573294,14.731 C13.0573294,15.062 12.7883294,15.33 12.4573294,15.33 M8.7713294,14.131 L11.8563294,14.131 L11.8563294,9.731 C11.8563294,9.4 12.1253294,9.131 12.4573294,9.131 L14.7803294,9.131 L10.3143294,3.548 L5.8483294,9.131 L8.1713294,9.131 C8.5023294,9.131 8.7713294,9.4 8.7713294,9.731 L8.7713294,14.131" id="Shape"></path>
            </g>
        </g>
    </g>
</svg>

<svg xmlns="http://www.w3.org/2000/svg" viewBox="0 0 20 20">
    <path fill="#000" fill-rule="evenodd" d="M15.987 18.188H4.642a.6.6 0 0 1 0-1.2h11.345a.599.599 0 1 1 0 1.2m-3.53-2.858H8.171a.599.599 0 0 1-.6-.599v-4.4h-2.97a.6.6 0 0 1-.47-.975l5.714-7.143a.623.623 0 0 1 .938 0l5.714 7.143a.6.6 0 0 1-.469.975h-2.97v4.4a.6.6 0 0 1-.6.599M8.77 14.131h3.085v-4.4a.6.6 0 0 1 .601-.6h2.323l-4.466-5.583-4.466 5.583h2.323a.6.6 0 0 1 .6.6v4.4"/>
</svg>
